X: 1368
T: Dad's Favourite
B: australian traditional tunes wiki
M:2/4
L:1/8
R: Hornpipe
Q: 1/4=100
K:G
V:1 
d/c/|:"G"BG "D7"A/G/F/E/|"G"DG GA/B/|"C"cE G/E/F/G/|"D7"FD DA/B/|
"C"c/B/c/d/ e/d/c/B/|"D7"A/B/c/d/ "C"ef/e/|"G"dB "D7"c/B/A/F/|1"G"GB Gd/c/:|2"G"GB GB/c/||
"G"dc/B/ "D7"A/B/c/d/|"C"ec ed/c/|"G"BG G/F/G/A/|"D7"FD DG/F/|
"C"E/F/G/A/ "D7"F/G/A/B/|"D7"A/B/c/d/ "C"ef/e/|"D7"d/c/B/A/ F/G/A/c/|"G"BG GB/c/||
"G"dc/B/ A/B/c/d/|"C"e/d/e/f/ gf/e/|"G"dB/A/ G/F/G/A/|"D7"FD DG/F/|
"C"E/F/G/A/ "D7"F/G/A/B/|"D7"A/B/c/d/ "C"ef/e/|"D7"d/c/B/A/ F/G/A/B/|"G"GBG2||
% abcbook-tune_id 6342d53a6317f342c374f5a1


% abcbook-boost 0
% abcbook-tablature 
% abcbook-transpose 
% abcbook-lastupdated 1665324361420
% abcbook-soundfonts 
% abcbook-repeats 1
% NFF Book 2013

